!!!OTL: Dui huadeng, 4)
!!!ARE: Asia, China,ÿHenan, Zhenping
!! IV, 156
!!!SCT: C1661D
!!!YEM: Copyright 1995, estate of Helmut Schaffrath.
**kern
*ICvox
*Ivox
*M2/4
*k[f#]
*G:
{8.dd
16ee
8dd
8b
=1
8dd
4gg
8gg
=2
8.dd
16ee
8dd
8b
=3
8a
8dd
4dd}
=4
{4dd
4fn
=5
8r
4ee
8ee
=6
4dd
8dd
8b
=7
8.a
16b
4dd}
=8
{8gg
8gg
8gg
8gg
=9
4gg
8ee
8dd
=10
8b
8b
8b
16b
16a
=11
4g
8b
8dd
=12
8a
8g
4a}
=13
{8.dd
16dd
8dd
8b
=14
8a
8dd
4gg
=15
8g
8e
4d}
=16
{8.g
16g
8g
8b
=17
8a
8b
8.g
16g
=18
8g
8g
8g
8e
=19
8.d
16e
4d}
==
!!!AGN: Wuge, Lianhualao
!!!AMT: simple duple
!!!AIN: vox
!!!EED: Helmut Schaffrath
!!!EEV: 1.0
*-
